!!!!SEGMENT: pl-wtm--a-43-184-99--001-005_stojowski-zygmunt--piec-piesni-op-11-no-5-siedzi-ptaszek-na-drzewie.krn
!!!cenid: 18xx:4455
!!!COM: Stojowski, Zygmunt
!!!COM-rismID: pe41019736
!!!CDT: 1870-1946
!!!CNT: Polish
!!!GTL: Pięć pięśni op. 11
!!!OTL: No. 5. Siedzi ptaszek na drzewie
!!!OMV: 005
!!!PDT: 1895
!!!AGN: Secular: Song
!!!YEC: Copyright 2022 Narodowy Instytut Fryderyka Chopina (https://polishscores.org)
!!!YEM: License CC-BY-4.0 (https://creativecommons.org/licenses/by/4.0)
!!!SMS-siglum: PL-Wtm
!!!SMS-shelfmark: A-43.184/99
!!!SMS-variant:
!!!SMS-altvar:
!!!SMS-shelfwork: 001-005 G
!!!NIFC-rismSourceID: 1001165241
!!!NIFC-rismChildID: 1001165241
!!!NIFC-islandoraID: pl-wtm:43123
!!!URL-pdf-islandora: https://repozytorium.nifc.pl/islandora/object/pl-wtm%3A43123/datastream/PDF/view
!!!URL-scan: https://polish.musicsources.pl/pl/lokalizacje/galeria/druki-muzyczne/22419/12 @EN{Scan on Polish Music Sources Website} @PL{Skany w portalu Dziedzictwo Muzyki Polskiej w otwartym dostępie}
!!!IIIF:
!!!ONB-nifc:
!!!AIN: 1 canto 1 piano
!!!key: a
**kern	**kern	**dynam	**kern	**text	**text	**dynam
*part2	*part2	*part2	*part1	*part1	*part1	*part1
*staff3	*staff2	*staff2/3	*staff1	*staff1	*staff1	*
*IGacmp	*IGacmp	*	*IGsolo	*	*	*
*ICklav	*ICklav	*	*ICvox	*	*	*
*Ipiano	*Ipiano	*	*Icanto	*	*	*
*I"PIANO.	*I"PIANO.	*	*I"CANTO.	*	*	*
*	*I'	*	*I'	*	*	*
*clefG2	*clefG2	*	*clefG2	*	*	*
*k[]	*k[]	*	*k[]	*	*	*
*a:	*a:	*	*a:	*	*	*
*M2/4	*M2/4	*	*M2/4	*	*	*
=1	=1	=1	=1	=1	=1	=1
!!LO:TX:a:B:t=Poco Allegretto.
!LO:TX:t=P:problem:klucz G2 dopiero przed pierwszą nutą w takcie	!	!LO:DY:t=%s legg.	!	!	!	!
8A'/L	4r	p	2r	.	.	.
8e'/J	.	.	.	.	.	.
.	(16qqee/LL	.	.	.	.	.
.	16qqff/JJ	.	.	.	.	.
4cc~\	[4ee~\)	.	.	.	.	.
=2	=2	=2	=2	=2	=2	=2
8A'/L	8ee\]	.	2r	.	.	.
8e'/J	8r	.	.	.	.	.
.	(16qqee/LL	.	.	.	.	.
.	16qqff/JJ	.	.	.	.	.
4cc\	[4ee\)	.	.	.	.	.
=3	=3	=3	=3	=3	=3	=3
8A/L	8ee\]	.	4r	.	.	.
8e/J	8r	.	.	.	.	.
.	(16qqee/LL	.	.	.	.	.
.	16qqff/JJ	.	.	.	.	.
!	!	!	!	!	!	!LO:DY:a
4cc\	[4ee\)	.	8cc\	Sie-	Sur	p
.	.	.	8dd\	-dzi	la	.
=4	=4	=4	=4	=4	=4	=4
8A/L	8ee\]	.	4ee\	pta-	bran-	.
8e/J	8r	.	.	.	.	.
.	(16qqee/LL	.	.	.	.	.
.	16qqff/JJ	.	.	.	.	.
4cc\	[4ee\)	.	8cc\	-szek	-che	.
.	.	.	8dd\	na	l’oi-	.
!!LO:LB:g=original
=5	=5	=5	=5	=5	=5	=5
8A/L	8ee\]	.	[<4ee\	drze-	-seau_	.
8e/J	8r	.	.	.	.	.
.	(16qqee/LL	.	.	.	.	.
.	16qqff/JJ	.	.	.	.	.
4cc\	[4ee\)	.	8ee\]	-wie	.	.
.	.	.	8ee\	I	comme	.
*clefF4	*	*	*	*	*	*
=6	=6	=6	=6	=6	=6	=6
8E\L	8ee\]	.	8dd\	lu-	un	.
8B\J	8r	.	8cc\	-dziom	sa-	.
.	(16qqee/LL	.	.	.	.	.
.	16qqff/JJ	.	.	.	.	.
4g\	[4ee\)	.	8b\	się	-ge	.
.	.	.	8a/	dzi-	pen-	.
=7	=7	=7	=7	=7	=7	=7
8E\L	8ee\]	.	[<4b\	-wu-	-seur_	.
8B\J	8r	.	.	.	.	.
.	(16qqee/LL	.	.	.	.	.
!!LO:TX:a:i:t=poco rit.
!	!	!	!LO:TX:t=P:problem:klamra łukowa	!	!	!
.	16qqff/JJ	.	.	.	.	.
*	*	*	*Xbrackettup	*	*	*
!	!	!	!LO:TUP:a:problem:klamra łukowa	!	!	!
4g\	[4ee\)	.	12b\]	-je	.	.
.	.	.	12a/	Że	Ju-	.
.	.	.	12b\	naj-	-ge	.
*clefG2	*	*	*	*	*	*
=8	=8	=8	=8	=8	=8	=8
!!LO:TX:a:i:t=a tempo
8A/L	8ee\]	.	4cc\	-mędr-	l’hom-	.
8e/J	8r	.	.	.	.	.
.	(16qqee/LL	.	.	.	.	.
.	16qqff/JJ	.	.	.	.	.
4cc\	[4ee\)	.	8a/	-szy	-me	.
.	.	.	8b\	z nich	qui	.
!!LO:LB:g=original
=9	=9	=9	=9	=9	=9	=9
8A'/L	8ee\]	.	4cc\	nie	pas-	.
8e'/J	8r	.	.	.	.	.
.	(16qqee/LL	.	.	.	.	.
.	16qqff/JJ	.	.	.	.	.
4cc'\	[4ee\)	.	[4cc\	wie_	-se_	.
*clefF4	*	*	*	*	*	*
=10	=10	=10	=10	=10	=10	=10
8C'\L	8ee\]	.	8cc\]	.	.	.
8B-X'\J	8r	.	8r	.	.	.
.	(16qqee/LL	.	.	.	.	.
.	16qqff/JJ	.	.	.	.	.
4g'\	[4ee\)	.	8g/	Gdzie	i-	.
.	.	.	8a/	się	-gno-	.
=11	=11	=11	=11	=11	=11	=11
8C\L	8ee\]	.	4b-X\	szczę-	-rant	.
!!LO:TX:a:i:t=poco rit.
8B-X\J	8r	.	.	.	.	.
.	(16qqee/LL	.	.	.	.	.
.	16qqff/JJ	.	.	.	.	.
4g\	4ee\)	.	8g/	-ście	le	.
.	.	.	8a/	znaj-	bon-	.
=12	=12	=12	=12	=12	=12	=12
!!LO:TX:a:i:t=a tempo
!	!LO:TX:b:i:t=a tempo	!	!	!	!	!
8FF/L	4r	.	[2f/	-du-	-heur_	.
8C/J	.	.	.	.	.	.
.	(16qqff/LL	.	.	.	.	.
.	16qqgg/JJ	.	.	.	.	.
4A\	[4ff\)	.	.	.	.	.
!!LO:PB:g=original
=13	=13	=13	=13	=13	=13	=13
8FF/L	8ff\]	.	2f/_	.	.	.
8C/J	8r	.	.	.	.	.
.	(16qqff/LL	.	.	.	.	.
.	16qqgg/JJ	.	.	.	.	.
4A\	[4ff\)	.	.	.	.	.
=14	=14	=14	=14	=14	=14	=14
8FF/L	8ff\]	.	8f/]	je	.	.
8C/J	8r	.	8r	.	.	.
4A\	8r	.	4r	.	.	.
.	(>[8f/	.	.	.	.	.
=15	=15	=15	=15	=15	=15	=15
*	*^	*	*	*	*	*
!	!LO:TX:a:i:t=poco rit.	!	!	!	!	!	!
8FF/L	8g/L	4f\]	<	2r	.	.	.
8C/J	8a/	.	.	.	.	.	.
.	.	.	[	.	.	.	.
4c\	8b-X/	4e\	>	.	.	.	.
.	16g/L	.	.	.	.	.	.
.	16a/JJ	.	]	.	.	.	.
*	*v	*v	*	*	*	*	*
=16	=16	=16	=16	=16	=16	=16
8FF/L	8f/)	.	2r	.	.	.
8C/J	8r	.	.	.	.	.
.	(16qqf/LL	.	.	.	.	.
.	16qqg/JJ	.	.	.	.	.
4A\	[4f/)	.	.	.	.	.
=17	=17	=17	=17	=17	=17	=17
8FF/L	2f/]	.	2r	.	.	.
8C/J	.	.	.	.	.	.
4A\	.	.	.	.	.	.
!!LO:LB:g=original
=18	=18	=18	=18	=18	=18	=18
*	*^	*	*	*	*	*
!	!LO:TX:a:i:t=a tempo	!	!	!	!	!	!
8FF/L	4r	8d 8B-X\	.	8g/	Trwo-	U-	.
8D/J	.	8r	.	8a/	-nią	-ne	.
.	(16qqg/LL	.	.	.	.	.	.
.	16qqa/JJ	.	.	.	.	.	.
8B-X\	[>4g/)	4ryy	.	12b-X/	ży-	len-	.
.	.	.	.	12a/	-cia	-te	.
8r	.	.	.	.	.	.	.
.	.	.	.	12g/	dzień	tris-	.
=19	=19	=19	=19	=19	=19	=19	=19
8EE/L	8g/]	8c#X 8A\	.	4.a/	ja-	-tes-	.
8AA/J	8r	8ryy	.	.	.	.	.
.	(16qqg/LL	.	.	.	.	.	.
.	16qqa/JJ	.	.	.	.	.	.
8c#X\	[>4g/)	4ryy	.	.	.	.	.
8r	.	.	.	8e/	-sny	-se	.
=20	=20	=20	=20	=20	=20	=20	=20
8FF/L	8g/]	8d 8B-X\	.	8g/	Na	L’en-	.
8D/J	8r	8ryy	.	8a/	za-	-va-	.
.	(16qqg/LL	.	.	.	.	.	.
.	16qqa/JJ	.	.	.	.	.	.
8B-X\	[4g/)	4ryy	.	8b-X/	-bie-	-hit	.
8r	.	.	.	16a/	-gi	et	.
.	.	.	.	16g/	i	l’op-	.
=21	=21	=21	=21	=21	=21	=21	=21
8EE/L	8g/]	8c#X 8A\	.	4cc#X\	ża-	-pres-	.
8AA/J	8r	8ryy	.	.	.	.	.
.	(16qqg/LL	.	.	.	.	.	.
.	16qqa/JJ	.	.	.	.	.	.
8c#X\	4g/)	4ryy	.	8g/	-le	-se	.
8r	.	.	.	8r	.	.	.
*	*v	*v	*	*	*	*	*
!!LO:LB:g=original
=22	=22	=22	=22	=22	=22	=22
8D\L	4r	.	8a/	Tyl-	A-	.
8A\J	.	.	8bn\	-ko	-lors	.
.	(16qqa/LL	.	.	.	.	.
.	16qqb/JJ	.	.	.	.	.
8f\	4a/)	.	12ccn\	w pier-	que	.
.	.	.	12b\	-si	dans	.
8r	.	.	.	.	.	.
.	.	.	12a/	swéj	son	.
=23	=23	=23	=23	=23	=23	=23
8D\L	4r	.	4.b\	wła-	â-	.
8B\J	.	.	.	.	.	.
.	(16qqg#X/LL	.	.	.	.	.
.	16qqa/JJ	.	.	.	.	.
8f\	4g#y/)	.	.	.	.	.
!!LO:TX:a:i:t=poco slent.
8r	.	.	8b\	-snéj	-me	.
=24	=24	=24	=24	=24	=24	=24
!	!LO:TX:b:i:t=poco slent.	!	!	!	!	!
8C\L	4r	.	8cc\	Nie	Est	.
8A\J	.	.	8dd\	szu-	le	.
.	.	.	.	.	.	>
.	(16qqa/LL	.	.	.	.	.
.	16qqb/JJ	.	.	.	.	.
8f\	4a/)	.	8ee\	-ka-	bien-	.
8r	.	.	16dd\	-ją	-qu’il	.
.	.	.	16cc\	go	ré-	]]
=25	=25	=25	=25	=25	=25	=25
8BB\L	4r	.	4dd\	wca-	-cla-	.
8A\J	.	.	.	.	.	.
.	(16qqa/LL	.	.	.	.	.
.	16qqb/JJ	.	.	.	.	.
8d\	4a/)	.	8a/	-le	-me	.
8r	.	.	8r	.	.	.
!!LO:LB:g=original
=26	=26	=26	=26	=26	=26	=26
*	*^	*	*	*	*	*
!!LO:TX:a:i:t=a tempo
!	!	!LO:TX:a:i:t=a tempo	!	!	!	!	!
8EE/L	[2g/	4f\	.	8g/	W nie-	Il	.
8BB-X/J	.	.	<	8a/	-na-	gas-	<
.	.	(16qqe/LL	.	.	.	.	.
.	.	16qqf/JJ	.	.	.	.	.
8G\	.	(8e\L)	.	8b-X/	-wi-	-pil-	.
8r	.	8d\J)	.	16a/	-ści	-le	.
.	.	.	.	16g/	i	sa	.
=27	=27	=27	=27	=27	=27	=27	=27
*^	*	*	*	*	*	*	*
2AA/	(4FF\	(8g/L]	2c#X\	.	(4a/	kłó-	vi-	.
.	.	8a 8A/	.	.	.	.	.	.
.	8EE\L	8b-X 8B-X/	.	.	8cc#X\)	.	.	.
.	8EE-X\J)	16aL 16A/	.	.	8cc#\	-tni	-e	.
.	.	16gJJ 16G/)	.	.	.	.	.	.
*v	*v	*	*	*	*	*	*	*
=28	=28	=28	=28	=28	=28	=28	=28
8AA/L	[2cc 2c/	4b-X\	.	8ccn\	Wy-	Mau-	.
8E-X/J	.	.	.	8dd\	-dzie-	-dit	.
.	.	(16qqa/LL	.	.	.	.	.
.	.	16qqb-/JJ	.	.	.	.	.
8c\	.	(8a\L)	.	8ee-X\	-ra-	la	.
8r	.	8g\J)	.	16dd\	-ją	paix	.
.	.	.	.	16cc\	coś	ra-	.
=29	=29	=29	=29	=29	=29	=29	=29
*^	*	*	*	*	*	*	*
!!LO:TX:a:i:t=poco rit.
2D/	(4BB-X\	(8cc/L]	2f#X\	.	4ff#X\	so-	-vi-	.
.	.	.	.	.	.	.	.	.
!	!	!LO:TX:b:i:t=poco rit.	!	!	!	!	!	!
.	.	8dd 8d/	.	.	.	.	.	.
.	8AA\L	8ee-X 8e-X/	.	>	8cc\	-bie	-e	.
.	8GG#X\J)	16ddL 16d/	.	.	8r	.	.	.
.	.	16ccJJ 16c/)	.	]]	.	.	.	.
*v	*v	*	*	*	*	*	*	*
*	*v	*v	*	*	*	*	*
!!LO:PB:g=original
=30	=30	=30	=30	=30	=30	=30
!!LO:TX:a:i:t=a tempo ma poco slargato
!	!LO:TX:a:i:t=a tempo ma poco slargato	!	!	!	!	!
(>2D [>2AA [2DD/	[2dd [2a [2fn [2d/	p	4r	.	.	.
.	.	>	.	.	.	.
!	!	!	!	!	!	!LO:DY:b:rj
.	.	.	8dd\	Aż	En-	p
.	.	]]	8ee\	zmę-	-fin	.
=31	=31	=31	=31	=31	=31	=31
4F 4AA] 4DD/])	4dd] 4a] 4f] 4d/]	.	4ffn\	-cze-	las	.
4EE/	4g#X 4d 4B/	.	8ee\	-ni	il	.
.	.	.	8dd\	i	suc-	.
=32	=32	=32	=32	=32	=32	=32
4FF/	4a 4c 4A/	.	4cc\	smu-	-com-	.
.	.	>	.	.	.	.
4GG/	4gn 4B 4Gn/	.	4b\	-tni	-be,	.
!!LO:TX:a:i:t=calando
!	!LO:TX:a:i:t=calando	!	!	!	!	!
.	.	.	.	.	.	.
=33	=33	=33	=33	=33	=33	=33
2AA/	2f 2c 2F/	]	8a/	I-	Pleu-	.
.	.	.	8b\	-dą	-re et	.
!	!	!	!	!	!	!LO:DY:a
.	.	.	4cc\	prze-	creu-	>
=34	=34	=34	=34	=34	=34	=34
2DD/	2f 2B 2F/	.	4b\	-spać	-se	.
.	.	.	.	.	.	]
.	.	.	4b\	się	sa	.
!!LO:LB:g=original
=35	=35	=35	=35	=35	=35	=35
2EE/	[2e 2c 2G/	.	[2e/	w gro-	tom-	.
=36	=36	=36	=36	=36	=36	=36
2GG/	2e] 2B 2E/	.	4e/]	.	.	.
.	.	.	4e/	-bie	-be.	.
=37	=37	=37	=37	=37	=37	=37
!	!	!LO:DY:t=più %s	!	!	!	!
2EE 2EEE/	[2e 2c 2G [2E/	pp	2r	.	.	.
=38	=38	=38	=38	=38	=38	=38
2GG 2GGG/	2e] 2B 2E/]	.	2r	.	.	.
*clefG2	*	*	*	*	*	*
=39	=39	=39	=39	=39	=39	=39
!!LO:TX:a:B:t=Tempo I.
!	!LO:TX:a:B:t=Tempo I.	!LO:DY:t=%s legg.	!	!	!	!
8A'/L	4r	p	2r	.	.	.
8e'/J	.	.	.	.	.	.
.	(16qqee/LL	.	.	.	.	.
.	16qqff/JJ	.	.	.	.	.
4cc\	[4ee\)	.	.	.	.	.
=40	=40	=40	=40	=40	=40	=40
8A/L	8ee\]	.	2r	.	.	.
8e/J	8r	.	.	.	.	.
.	(16qqee/LL	.	.	.	.	.
.	16qqff/JJ	.	.	.	.	.
4cc\	[4ee\)	.	.	.	.	.
=41	=41	=41	=41	=41	=41	=41
8A/L	8ee\]	.	4r	.	.	.
8e/J	8r	.	.	.	.	.
.	(16qqee/LL	.	.	.	.	.
.	16qqff/JJ	.	.	.	.	.
4cc\	[4ee\)	.	8cc\	A	Sur	.
.	.	.	8dd\	więc	la	.
!!LO:LB:g=original
=42	=42	=42	=42	=42	=42	=42
8A/L	8ee\]	.	4ee\	sie-	bran-	.
8e/J	8r	.	.	.	.	.
.	(16qqee/LL	.	.	.	.	.
.	16qqff/JJ	.	.	.	.	.
4cc\	[4ee\)	.	8cc\	-dząc	-che	.
.	.	.	8dd\	na	l’oi-	.
=43	=43	=43	=43	=43	=43	=43
8A/L	8ee\]	.	4.ee\	drze-	-seau	.
8e/J	8r	.	.	.	.	.
.	(16qqee/LL	.	.	.	.	.
.	16qqff/JJ	.	.	.	.	.
4cc\	4ee\)	.	.	.	.	.
.	.	.	8ee\	-wie	E-	.
*clefF4	*	*	*	*	*	*
=44	=44	=44	=44	=44	=44	=44
*	*	*	*^	*	*	*
8D\L	4r	.	8dd/	8dd\L	Pta-	-grène_	.
!!LO:TX:a:i:t=poco rit.
!	!LO:TX:b:i:t=poco rit.	!	!LO:TUP:a:problem:klamra łukowa	!	!	!	!
8c\J	.	.	8cc/	8cc\J	-szek	.	.
.	(16qqff#X/LL	.	.	.	.	.	.
.	16qqgg/JJ	.	.	.	.	.	.
4a\	4ff#y\)	.	12cc\	4ryy	dzi-	u-	.
.	.	.	12b\	.	-wi	-ne	.
.	.	.	12a/	.	się	chan-	.
*	*	*	*v	*v	*	*	*
=45	=45	=45	=45	=45	=45	=45
8GG/L	4r	.	(<4b\	bar-	-son_	.
8D/J	.	.	.	.	.	.
.	(16qqgg/LL	.	.	.	.	.
.	16qqaa/JJ	.	.	.	.	.
4B\	[4gg\)	.	8g/)	-dzo	.	.
.	.	.	8r	.	.	.
!!LO:PB:g=original
=46	=46	=46	=46	=46	=46	=46
!!LO:TX:a:i:t=a tempo
!	!LO:TX:a:i:t=a tempo	!	!	!	!	!
8GG/L	8gg\]	.	4r	.	.	.
8D/J	8r	.	.	.	.	.
.	(16qqgg/LL	.	.	.	.	.
.	16qqaa/JJ	.	.	.	.	.
4B-X\	[4gg\)	.	8g/	Chciał-	Mais	.
.	.	.	8a/	-by	le	.
=47	=47	=47	=47	=47	=47	=47
!	!	!LO:HP:t=poco cresc.	!	!	!	!LO:HP:t=poco cresc.
8GG/L	8gg\]	<	4b-X\	prze-	fou	<
8D/J	8r	.	.	.	.	.
.	(16qqgg/LL	.	.	.	.	.
.	16qqaa/JJ	.	.	.	.	.
4B-X\	[4gg\)	.	8g/	-strzedz	dé-	.
.	.	.	8a/	ich	-dai-	.
=48	=48	=48	=48	=48	=48	=48
*	*	*	*^	*	*	*
8GG/L	8gg\]	.	4.b-X/	[4b-\	w śpie-	-gneux_	.
8D/J	8r	.	.	.	.	.	.
.	(16qqgg/LL	.	.	.	.	.	.
.	16qqaa/JJ	.	.	.	.	.	.
*	*	*	*	*cue	*	*	*
4B-X\	4gg\)	.	.	8b-\]	.	.	.
*	*	*	*	*Xcue	*	*	*
.	.	.	8b-/	8r	-wie	.	.
*	*	*	*v	*v	*	*	*
=49	=49	=49	=49	=49	=49	=49
8FF/L	4r	.	4r	.	.	.
8E-X/J	.	.	.	.	.	.
.	(16qqaa/LL	.	.	.	.	.
.	16qqbb-X/JJ	.	.	.	.	.
4c\	[4aa\)	.	8cc\	Lecz	N’en-	.
.	.	.	8dd\	prze-	-tend	.
!!LO:LB:g=original
=50	=50	=50	=50	=50	=50	=50
8FF/L	4aa\]	.	4ee-X\	-stro-	pas	.
8E-X/J	.	.	.	.	.	.
.	(16qqaa/LL	.	.	.	.	.
.	16qqbb-X/JJ	.	.	.	.	.
4c\	[4aa\)	.	8cc\	-gą	la	.
.	.	.	8dd\	po-	le-	.
=51	=51	=51	=51	=51	=51	=51
*	*^	*	*	*	*	*
!	!LO:TX:a:i:t=espress.	!	!	!	!	!	!LO:DY:a
8EEn/L	(8aa/L]	4r	.	[2een\	-gar-	-çon_	.
8En/J	8gg#X/	.	.	.	.	.	.
4e\	8ggn/	4bn\	.	.	.	.	>
.	8ff/J	.	>	.	.	.	.
=52	=52	=52	=52	=52	=52	=52	=52
8EE/L	8ee/L	4g#X\	.	4ee\_<	.	.	]
!!LO:TX:a:i:t=rall.
!	!LO:TX:a:i:t=rall.	!	!	!	!	!	!
8E/J	8dd#X/	.	.	.	.	.	.
4e\	8ddn/	4gn\	]	8ee\]	-dzą	.	.
.	8cc#X/J)	.	.	8r	.	.	.
*	*v	*v	*	*	*	*	*
=53	=53	=53	=53	=53	=53	=53
2A\	2ccn 2f#X 2c/	p	4r	.	.	.
!	!	!	!	!	!	!LO:DY:a
.	.	.	8e/	Lecz	N’en-	p
.	.	.	8f#X/	prze-	-tend	.
=54	=54	=54	=54	=54	=54	=54
2E\	2b 2g#X 2B/	.	4g#X/	-stro-	pas	.
.	.	.	8e/	-gą	la	.
.	.	.	8g#/	po-	le-	.
!!LO:LB:g=original
=55	=55	=55	=55	=55	=55	=55
8AA/L	4r	.	[2a/	-gar-	-çon._	.
8E/J	.	.	.	.	.	.
.	(16qqee/LL	.	.	.	.	.
.	16qqff/JJ	.	.	.	.	.
4c\	[4ee\)	.	.	.	.	.
=56	=56	=56	=56	=56	=56	=56
!	!LO:TX:b:i:t=a tempo	!	!	!	!	!
8AA/L	4ee\]	.	2a/_	.	.	.
8E/J	.	.	.	.	.	.
.	(16qqee/LL	.	.	.	.	.
.	16qqff/JJ	.	.	.	.	.
4c\	[4ee\)	.	.	.	.	.
=57	=57	=57	=57	=57	=57	=57
*	*^	*	*	*	*	*
8AA/L	4ryy	8ee\L]	.	4a/]	-dzą.	.	.
.	.	(16qqee/LL	.	.	.	.	.
.	.	16qqff/JJ	.	.	.	.	.
8E/J	.	(8ee\)	.	.	.	.	.
.	.	.	<	.	.	.	.
4c\	4cc/	[[<8cc\	.	4r	.	.	.
.	.	8ee\J)	.	.	.	.	.
=58	=58	=58	=58	=58	=58	=58	=58
8AA/L	(8ff#X/L	2cc\]]	[	2r	.	.	.
.	(<16qqff#/LL	.	.	.	.	.	.
.	16qqgg/JJ	.	.	.	.	.	.
8D/J	8ff#/)	.	.	.	.	.	.
4c\	8dd/	.	.	.	.	.	.
.	8ff#/J)	.	.	.	.	.	.
*	*v	*v	*	*	*	*	*
=59	=59	=59	=59	=59	=59	=59
*^	*	*	*	*	*	*
8ryy	8AA\L	2gg#X 2btt\	.	2r	.	.	.
!	!	!LO:TX:a:i:t=poco rit.	!	!	!	!	!
4.E/	8E\J	.	>	.	.	.	.
.	4d\	.	.	.	.	.	.
.	.	(16qqff#X/LL	.	.	.	.	.
.	.	16qqgg#/JJ)	.	.	.	.	.
=60	=60	=60	=60	=60	=60	=60	=60
8AA/L	[4AA\	[4aa: [4ee:\	]	2r	.	.	.
[<8E/J	.	.	.	.	.	.	.
!	!	!	!LO:DY:rj	!	!	!	!
4c;/	4E] 4AA;\]	4aa] 4ee] 4a;\	p	.	.	.	.
*v	*v	*	*	*	*	*	*
==	==	==	==	==	==	==
*-	*-	*-	*-	*-	*-	*-
!!!system-decoration: s1{(s2,s3)}
!!!RDF**kern: i = editorial accidental
!!!RDF**kern: > = above
!!!RDF**kern: < = below
!!!RDF**kern: N = linked
!!!RDF**dynam: > = "dim.", fontstyle= "italic"
!!!ENC: Andrzej Gręziak
!!!EED: Katarzyna Serwa
!!!END: 2023-10-23
!!!EEV: 2023-11-17
